kit/img/logo-text.svg

<svg width="98" height="22" viewBox="0 0 98 22" fill="none" xmlns="http://www.w3.org/2000/svg">
	<path d="M0 17.5317V4.46826H3.09202V10.1604L7.44376 4.46826H11.1656L6.21268 10.6727L11.5665 17.5032H7.78732L3.09202 11.498V17.5032H0V17.5317Z" fill="white"/>
	<path d="M12.6831 17.5317V4.46826H15.8038V17.5317H12.6831Z" fill="white"/>
	<path d="M21.5297 17.5317V7.20047H17.3784V4.46826H28.859V7.20047H24.679V17.5317H21.5297Z" fill="white"/>
	<path d="M35.1001 0H37.7913L32.1226 22H29.4314L35.1001 0Z" fill="#30D4F9"/>
	<path d="M95.3088 0H98.0001L92.3313 22H89.6401L95.3088 0Z" fill="#30D4F9"/>
	<path d="M50.3884 10.9859C50.3884 10.0182 50.5602 9.10748 50.9038 8.28212C51.2473 7.42831 51.734 6.68833 52.3925 6.00528C53.0224 5.37915 53.7381 4.89532 54.5398 4.55379C55.3414 4.21227 56.2003 4.0415 57.1164 4.0415C58.004 4.0415 58.8629 4.21227 59.6931 4.55379C60.5234 4.89532 61.2392 5.37915 61.869 6.03374C62.4989 6.68833 62.9856 7.42831 63.3291 8.25366C63.6441 9.10748 63.8158 10.0182 63.8158 10.9859C63.8158 11.8112 63.7013 12.5797 63.4723 13.2912C63.2432 14.0027 62.8997 14.6573 62.4416 15.255C61.8117 16.1088 61.0101 16.7634 60.094 17.2187C59.1492 17.6741 58.1758 17.9302 57.1164 17.9302C56.2289 17.9302 55.37 17.7595 54.5684 17.418C53.7668 17.0764 53.0224 16.5926 52.4212 15.938C51.7627 15.2834 51.276 14.515 50.9324 13.6896C50.5888 12.8643 50.3884 11.9535 50.3884 10.9859ZM53.595 10.9859C53.595 12.1243 53.9385 13.0635 54.597 13.8319C55.2555 14.6004 56.0858 14.9704 57.0592 14.9704C58.0326 14.9704 58.8629 14.6004 59.5214 13.8319C60.1798 13.0635 60.5234 12.1243 60.5234 10.9859C60.5234 9.84745 60.1798 8.8798 59.5214 8.11136C58.8629 7.34293 58.0326 6.97294 57.0592 6.97294C56.0858 6.97294 55.2555 7.34293 54.597 8.11136C53.9385 8.8798 53.595 9.84745 53.595 10.9859Z" fill="#30D4F9"/>
	<path d="M65.9631 17.9587V4.0415H69.456C71.9181 4.0415 73.8364 4.61071 75.2106 5.7776C76.6134 6.94448 77.3006 8.96518 77.3006 10.9859C77.3006 12.2097 77.0143 13.6896 76.4703 14.6288C75.9263 15.568 75.1247 16.3365 74.0654 16.9341C73.4642 17.2757 72.8057 17.5318 72.0899 17.6741C71.3742 17.8164 70.5153 17.9018 69.456 17.9018H65.9631V17.9587ZM69.0552 15.1411H69.7423C71.1165 15.1411 72.1758 14.7996 72.9488 14.145C73.7218 13.4904 74.1226 12.1528 74.1226 10.9859C74.1226 9.81899 73.7218 8.48135 72.9488 7.82676C72.1758 7.17216 71.1165 6.83064 69.7423 6.83064H69.0552V15.1411Z" fill="#30D4F9"/>
	<path d="M79.4763 17.9587L79.5049 4.0415H87.6072V6.74526H82.5683L82.5397 9.53439H86.8628V12.2097H82.5397V15.2265H87.6645V17.9872H79.4763V17.9587Z" fill="#30D4F9"/>
	<path d="M47.1819 14.572C46.5234 14.8566 45.8649 14.9989 45.2065 14.9989C44.0899 14.9989 43.1737 14.6289 42.458 13.889C41.7709 13.149 41.3987 12.1813 41.3987 10.986C41.3987 9.79064 41.7422 8.82298 42.458 8.05454C43.1737 7.28611 44.0613 6.91612 45.1778 6.91612C45.8077 6.91612 46.4375 7.05842 47.0101 7.34303C47.5827 7.62764 48.1553 8.05454 48.7279 8.65221L49.0715 5.32233C48.4703 4.89542 47.8118 4.61082 47.1533 4.38313C46.4948 4.18391 45.7791 4.07007 45.0347 4.07007C44.1185 4.07007 43.231 4.24083 42.3721 4.58236C41.5418 4.92388 40.7975 5.43617 40.139 6.06231C39.5091 6.7169 39.0224 7.45687 38.6788 8.31069C38.3353 9.16451 38.1921 10.0752 38.1921 11.0429C38.1921 12.1529 38.4212 13.2059 38.8793 14.1451C39.3373 15.0843 39.9672 15.9097 40.8261 16.5642C41.4273 17.0196 42.0858 17.3896 42.8015 17.6173C43.5173 17.845 44.2617 17.9873 45.0347 17.9873C45.7504 17.9873 46.4375 17.9019 47.1247 17.7027C47.7831 17.5034 48.413 17.2188 48.957 16.8489V16.6496L48.7566 13.6897C48.2412 14.0313 47.6973 14.3443 47.1819 14.572Z" fill="#30D4F9"/>
</svg>

<svg width="98" height="22" fill="none" xmlns="http://www.w3.org/2000/svg"><path d="M0 17.532V4.468h3.092v5.692l4.352-5.692h3.722l-4.953 6.205 5.353 6.83H7.787l-4.695-6.005v6.005H0v.029zm12.683 0V4.468h3.12v13.064h-3.12zm8.847 0V7.2h-4.152V4.468H28.86V7.2h-4.18v10.332h-3.15z" fill="#fff"/><path d="M35.1 0h2.691l-5.668 22H29.43L35.1 0zm60.209 0H98l-5.669 22h-2.69l5.668-22zM50.388 10.986a7 7 0 01.516-2.704 6.974 6.974 0 011.488-2.277 6.807 6.807 0 012.148-1.451 6.504 6.504 0 012.576-.513c.888 0 1.747.171 2.577.513.83.341 1.546.825 2.176 1.48a7.127 7.127 0 011.46 2.22c.315.853.487 1.764.487 2.732 0 .825-.115 1.594-.344 2.305a6.461 6.461 0 01-1.03 1.964 6.473 6.473 0 01-2.348 1.964c-.945.455-1.918.711-2.978.711-.887 0-1.746-.17-2.548-.512-.801-.342-1.546-.825-2.147-1.48a6.859 6.859 0 01-1.489-2.248 7.013 7.013 0 01-.544-2.704zm3.207 0c0 1.138.343 2.077 1.002 2.846.658.768 1.489 1.138 2.462 1.138.974 0 1.804-.37 2.462-1.138.659-.769 1.002-1.708 1.002-2.846 0-1.139-.343-2.106-1.002-2.875-.658-.768-1.488-1.138-2.462-1.138-.973 0-1.803.37-2.462 1.138-.659.769-1.002 1.736-1.002 2.875zm12.368 6.973V4.04h3.493c2.462 0 4.38.57 5.755 1.737 1.402 1.166 2.09 3.187 2.09 5.208 0 1.224-.287 2.704-.83 3.643-.545.939-1.346 1.708-2.406 2.305a6.58 6.58 0 01-1.975.74c-.716.142-1.575.228-2.634.228h-3.493v.057zm3.092-2.818h.687c1.374 0 2.434-.341 3.207-.996.773-.655 1.174-1.992 1.174-3.16 0-1.166-.401-2.504-1.174-3.158-.773-.655-1.832-.996-3.207-.996h-.687v8.31zm10.421 2.818l.029-13.918h8.102v2.704h-5.039l-.028 2.79h4.323v2.675H82.54v3.016h5.124v2.761h-8.188v-.028zm-32.294-3.387a4.944 4.944 0 01-1.976.427c-1.116 0-2.032-.37-2.748-1.11-.687-.74-1.06-1.708-1.06-2.903s.344-2.163 1.06-2.931c.716-.769 1.603-1.139 2.72-1.139.63 0 1.26.142 1.832.427.573.285 1.145.712 1.718 1.31l.343-3.33c-.6-.428-1.26-.712-1.918-.94a7.33 7.33 0 00-2.118-.313c-.916 0-1.804.17-2.663.512-.83.342-1.575.854-2.233 1.48a6.938 6.938 0 00-1.46 2.249c-.344.854-.487 1.764-.487 2.732 0 1.11.23 2.163.687 3.102.458.94 1.088 1.765 1.947 2.42.601.455 1.26.825 1.975 1.052a7.343 7.343 0 004.324.086 6.748 6.748 0 001.832-.854v-.2l-.2-2.96c-.516.342-1.06.655-1.575.883z" fill="#30D4F9"/></svg>
